X:1
T:Bruce Ottley
T:Story of the Cross
%%score { ( 1 2 ) | ( 3 4 ) }
L:1/8
M:4/4
K:Db
V:1 treble 
V:2 treble 
V:3 bass 
V:4 bass 
V:1
 F4 F2 F2 | E2 F2 G4 | G4 G2 G2 | F8 | B4 d2 c2 | B2 A2 G4 | F4 (A2 =G2) | F8 | F4 F2 F2 | %9
 E2 F2 G4 | G4 G2 G2 | F8 | B4 d2 c2 | B2 A2 G4 | F4 (D2 E2) | F8 | d4 A2 F2 | B3 B B4 | B4 A2 F2 | %19
 (F4 E4) | D4 A2 E2 | F2 A2 d4 | c4 c4 | c8 | d4 A2 F2 | B3 B B4 | B4 A2 F2 | (F4 E4) | D4 A2 E2 | %29
 F2 A2 d4 | c4 c4 | c8 | F4 A2 F2 | F3 E E4 | D4 E2 A2 | F8 | d4 c2 B2 | A3 A B4 | c4 (B3 A) | A8 | %40
 B4 E3 E | A3 D D4 | G4 G2 G2 | F8 | D4 E2 D2 | B3 D D4 | F4 E4 | D8 | F4 F2 F2 | E2 F2 G4 | %50
 G4 G2 G2 | F8 | B4 d2 c2 | B2 A2 G4 | F4 (A2 =G2) | F8 | F4 F2 F2 | E2 F2 G4 | G4 G2 G2 | F8 | %60
 B4 d2 c2 | B2 A2 G4 | F4 (D2 E2) | F8 |] %64
V:2
 D4 D2 D2 | D2 D2 D4 | (D2 C2) B,2 C2 | D8 | D4 F2 A2 | G2 F2 (E2 D2) | C4 =E4 | F8 | D4 D2 D2 | %9
 D2 D2 D4 | (D2 C2) B,2 C2 | D8 | D4 F2 A2 | G2 F2 (E2 D2) | C4 B,4 | C8 | F4 F2 F2 | F3 F E4 | %18
 G4 F2 F2 | (D4 C4) | D4 E2 E2 | D2 E2 F4 | (F2 A2) (=G2 =E2) | (F4 G4) | F4 F2 F2 | F3 F E4 | %26
 G4 F2 F2 | (D4 C4) | D4 E2 E2 | D2 E2 F4 | (F2 A2) (=G2 =E2) | F8 | D4 D2 D2 | C3 C C4 | %34
 D4 B,2 C2 | D8 | F4 =E2 =G2 | F3 F F4 | E4 D4 | C8 | E4 C3 C | D2 C2 B,4 | (D2 C2) B,2 C2 | D8 | %44
 =B,4 B,2 B,2 | B,3 =A, (A,2 D2) | C4 C4 | D8 | D4 D2 D2 | D2 D2 D4 | (D2 C2) B,2 C2 | D8 | %52
 D4 F2 A2 | G2 F2 (E2 C2) | C4 =E4 | F8 | D4 D2 D2 | D2 D2 D4 | (D2 C2) B,2 C2 | D8 | D4 F2 A2 | %61
 G2 F2 (E2 D2) | C4 B,4 | C8 |] %64
V:3
 B,4 B,2 B,2 | B,2 B,2 B,4 | A,4 A,2 A,2 | A,8 | B,4 B,2 E2 | D2 =B,2 _B,4 | A,4 B,4 | A,8 | %8
 B,4 B,2 B,2 | A,2 B,2 B,4 | A,4 A,2 A,2 | A,8 | B,4 B,2 E2 | D2 =B,2 _B,4 | =A,4 B,4 | =A,8 | %16
 A,4 A,2 A,2 | B,3 B, B,4 | C4 D2 A,2 | (B,4 C4) | A,4 A,2 A,2 | A,2 A,2 A,4 | %22
 (A,2 C2) (B,2 =G,2) | A,8 | A,4 A,2 A,2 | B,3 B, B,4 | C4 D2 A,2 | (B,4 C4) | A,4 A,2 A,2 | %29
 A,2 A,2 A,4 | (A,2 C2) (B,2 =G,2) | A,8 | A,4 A,2 A,2 | A,3 A, A,4 | A,4 G,2 E,2 | (F,4 A,4) | %36
 A,4 =G,2 C2 | C3 C (B,2 A,2) | (A,2 F,2) (=G,3 A,) | A,8 | B,4 A,3 A, | A,2 A,2 F,4 | %42
 A,4 A,2 A,2 | A,8 | A,4 A,2 A,2 | G,3 E, (E,2 =A,2) | A,4 G,4 | F,8 | B,4 B,2 B,2 | B,2 B,2 B,4 | %50
 A,4 A,2 A,2 | A,8 | B,4 B,2 E2 | D2 =B,2 _B,4 | A,4 B,4 | A,8 | B,4 B,2 B,2 | B,2 B,2 B,4 | %58
 A,4 A,2 A,2 | A,8 | B,4 B,2 E2 | D2 =B,2 _B,4 | =A,4 B,4 | =A,8 |] %64
V:4
 B,,4 B,,2 B,,2 | G,2 F,2 E,4 | A,,4 A,,2 A,,2 | D,8 | B,,4 B,2 F,2 | G,2 =D,2 (E,2 B,,2) | %6
 C,4 C,4 | F,8 | B,,4 B,,2 B,,2 | G,2 F,2 E,4 | A,,4 A,,2 A,,2 | D,8 | B,,4 B,2 F,2 | %13
 G,2 =D,2 E,4 | F,4 G,4 | F,8 | D,4 D,2 D,2 | G,3 G, G,4 | E,4 D,2 B,,2 | (G,4 G,4) | F,4 C,2 C,2 | %21
 D,2 C,2 B,,4 | C,4 C,4 | (F,4 E,4) | D,4 D,2 D,2 | G,3 G, G,4 | E,4 F,2 D,2 | (G,4 G,4) | %28
 F,4 C,2 C,2 | D,2 C,2 B,,4 | C,4 C,4 | F,8 | D,4 F,2 D,2 | G,3 G, G,4 | (F,2 F,,2) G,,2 A,,2 | %35
 D,8 | B,,4 C,2 =E,2 | F,2 F,2 =D,4 | E,4 E,4 | A,,8 | G,4 G,3 G, | F,2 F,2 B,,4 | E,4 A,,2 A,,2 | %43
 D,8 | F,4 F,2 F,2 | G,,3 G,, G,,4 | A,,4 A,,4 | D,8 | B,,4 B,,2 B,,2 | G,2 F,2 E,4 | %50
 A,,4 A,,2 A,,2 | D,8 | B,,4 B,2 F,2 | G,2 =D,2 (E,2 B,,2) | C,4 C,4 | F,8 | B,,4 B,,2 B,,2 | %57
 G,2 F,2 E,4 | A,,4 A,,2 A,,2 | D,8 | B,,4 B,2 F,2 | G,2 =D,2 E,4 | F,4 G,4 | F,8 |] %64

